X:21
T:The Merry Go Round
C:from Edward Winder's ms2
M:6/8
L:1/8
K:D
dfd ege|cAc dfa|dfd ege|cAc d3:|
|:afa geg|fdf ecA|afa geg|fac d3:|
%%vskip 1cm
